X:1
T:Pr\"aludium und Fuge
T:Pr\"aludium und Fuge
T:BWV 895
T:Johann Sebastian Bach
C:Johann Sebastian Bach
%%score 1 2 3 4
L:1/8
M:4/4
K:C
V:1 treble 
V:2 treble 
V:3 bass 
V:4 bass 
V:1
 x8 | x4 z/ C/(B,/C/4D/4) x2 | z2 z/ B/MA/^G/ PAB/A/4B/4 c/A/f- | f>e e/d/e/B/ [Ec]2 z2 | %4
 z/ cc/ B/c/A/B/ M^G>G A/c/MB/A/ | d2 z/ =f/e/d/ ^c/A/d- d/e/4B/4=c | B2 z/ d/c/B/ A2 z/ f/e/d/ | %7
 g2 z/ _b/a/g/ f2 [df]2 | z/ a/g/f/ [=ce]2 z/ c'/b/a/ z/ f/e/d/- | %9
 d/d/c/B/ c/4B/4A/4G/4F/4E/4D/4C/4 x4 | z z/ A/ C2- C2 B,2 | x2 [DF-]2 F/F/E/D/ E^G | %12
 !fermata![EA]8 |] z EEE A,FFF | EDCB, CA,/B,/ C/D/E/^F/ | GE/^F/ G/A/B/c/ ^DE/F/ B,P^C/D/ | %16
 E3 =D/C/ PD2- D/C/D/B,/ | z eee Afff | edcB cccc | Beee ^f2 z f- | fMe/^d/ ee- e/e/d/^c/ d2 | %21
 z/ =d/e/d/ c2 z/ c/d/c/ B2 | z/ A/MB/c/ d/c/d/B/ cd/e/ f/e/f/d/ | ^GG/A/ B/A/B/G/ PA2 z2 | x8 | %25
 x4 z eee | Afff ed Mc>B | c/B/Pc/d/ e/f/g/e/ a/^g/a/b/ a/c'/b/a/ | %28
 ^gPa/b/ eP^f/g/ ab/c'/ fP=g/a/ | g>^f g/a/g/f/ e2 z/ g/Mf/e/ | ^dPe/^f/ BP^c/d/ e=d=cB | %31
 APB/c/ d2- d/f/e/d/ cB/A/ | ^GA MA>G A z z2 | z4 z AAA | Eccc BAG^F | G=FED EDCB, | %36
 C2 z A- AMG/^F/ G2- | G/E/=F/G/ AG F2 z2 | z4 z eee | Afff edcB | A z z2 z/ B/c/d/ e^f | %41
 ^ga b2 z/ b/a/g/ a/=g/f/e/ | f/a/f/^c/ f/A/e/G/ A/d/A/F/ d/F/=c/E/ | %43
 F/_B/F/D/ B/D/A/C/ ^G/=B/G/E/ G/B,/^F/A,/ | x4 A2 z2 | z/ B/A/^G/ A2 A2- A>G | !fermata![EA]8 |] %47
V:2
 x8 | x8 | x4 E2 z c | B2 z E z/ ^G/A/E/ C/E/A,/B,/4A,/4 | z F- F2 E2 E2 | %5
 z/ A/B/^F/ ^G2 A2- A>=G | F2 E2 E2 DA | z/ d/e/B/ ^c2 z/ e/d/c/ A2 | [Gd]2 GA- [Ad]2 [^Gb]2 | %9
 [Ae]2 x2 x4 | z2 z/ ^G,/A,- A,/G,/A,- A,/^F,/G, | A,/E/^C/A,/ z/ C/D- D2- D/C/D/B,/ | %12
 !fermata!^C8 |] x8 | x8 | x8 | x8 | x8 | x4 z AAA | Eccc BAG^F | G2 z G ^F2 z F | %21
 E2 z/ B/MA/^G/ A2 z/ A/MG/^F/ | ^G GGG AAAA | ^G x x2 x4 | %24
 E^F/=G/ A/G/MF/E/ ^D/F/PG/A/ B/c/MB/A/ | ^GA MA>G AGBB | cAAA BBA^G | AAc z z4 | z8 | z BBB Eccc | %30
 BAG^FEF/^G/ A=G | ^FE DE/=F/ B,E-EF | E2 D2 C z D2- | D/CB,/- B,/A,^G,/ A2 z C/D/ | %34
 EE E/^F/G/A/ EF- F/E^D/ | z/ DD/- D/CB,/ z/ CB,/- B,/A,^G,/ | A,2 z ^C D2 z E/D/ | %37
 ^C2 z/ DC/ D/A,/B,/=C/ DC | B,2- B,/B,/A,/^G,/ A,AA^G | A2 z/ A/d/B/ z/ A^G/ z/ ED/ | %40
 C z z/ c/B/A/ ^G2 z/ AA/ | z/ Bc/ z/ d/e/d/ c2 z A | A2 z2 z4 | x8 | x4 E2 x2 | z2 z ^F E3 =D | %46
 !fermata!^C8 |] %47
V:3
 x8 | x2 C,/^G,,/A,,/^D,,/ E,, z G,>G, | P[C,E,A,]2 z/ D/C/B,/ CD/MC/4D/4 E3/2MD/4C/4 | %3
 D2 z B, A,2 x2 | z A,DC B,2 A,A, | B,2 z E=F3/2E/4D/4 E2 | D/D/C/B,/ ED ^C/B,/C/A,/ x2 | %7
 E2 E2 D2 x2 | x8 | x8 | ^D,4- D,>D, E,>=D, | ^C,2 z z/ ^G,/ A,4 | !fermata!A,8 |] x8 | x8 | x8 | %16
 x8 | CC/B,/ C2 z/ C/B,/A,/ D2 | CB,A,^G, A, x x2 | x8 | x8 | x8 | x8 | x4 C/B,/A,/B,/ C/B,/C/D/ | %24
 x8 | E,2 x2 x4 | x8 | z EEE A,FFF | EDCB, A,2 B,2 | B,2 B,2- B,/B,/A,/^G,/ A,^F, | %30
 B,2 z B, =CB, A,B,/C/ | DCB,A, ^G,2 A,D- | D/C/B,/A,/ B,2 CB,/A,/ B,/C/B,/A,/ | %33
 ^G,^F,E,D, C,2 z2 | x8 | x8 | z A,A,A, D,_B,B,B, | A,G,F,E, D,2 z/ G,F,/- | %38
 F,/F,/ME,/D,/ C,D, E,C B,E/D/ | F,/C/B,/A,/ D2 CB,A,^G, | A,/C/D/A,/ D2 EB,CD | DE E2 E2 z ^C | %42
 D2 z2 z4 | z4 =B,2 z2 | ^G,/E/B,/G,/ B,/E,/G,/D,/ A,2 z2 | z2 z B, CB,/A,/ [E,B,]2 | %46
 !fermata!E,8 |] %47
V:4
 z/ A,/4B,/4C/4D/4E/4F/4 ^G, z z/ C/B,/A,/ G,/A,/B,/^F,/ | ^G,/^D,/E,/B,,/ x4 z [E,,B,,=D,E,] | %2
 A,,2 z2 A,2 z A, | ^G,2 z G, A,2 z2 | D,4- D,2 C,2 | B,,2 B,2 A,4- | A,2 G,2- G,2 F,2 | %7
 E,2 A,2 D,2 z/ ^C/D/A,/ | B,2 z/ =C/B,/A,/ B,2 z B, | %9
 A,2 x2 B,/4A,/4B,/4C/4D/4E/4F/4E/4 D/4C/4B,/4A,/4G,/4^F,/4E,/4F,/4 | x4 x2 z E,, | A,,8 | %12
 !fermata!A,,8 |] x8 | z4 z A,A,A, | E,CCC B,MA,G,^F, | G,^F,/E,/ B,2- B,/A,/B,/F,/ ^G,2 | %17
 A,2 A,=G, F,2 z D, | E,2 z E, A,,A,,/B,,/ C,/D,/E,/^F,/ | %19
 =G,E,/^F,/ G,/A,/B,/C/ ^D,E,/F,/ B,,^C,/D,/ | E,2 z/ E,/^F,/G,/ A,F, B,/=C/B,/A,/ | %21
 ^G,E,A,E, F,C,D,B,, | E, EEE A,FFF | EDCB, z A,A,A, | E,CCC B,A,G,^F, | %25
 E,/B,/C/D/ E/=F/E/D/ C,E,/^F,/ ^G,/E,/F,/G,/ | A,B,/C/ D/C/B,/A,/ ^G,/A,/4B,/4C/D/ EE, | %27
 A,A,A,A, F,DDD | E,2 z E, ^F,E,^D,C, | E,^D,E,=D, C,2 z A,, | B,,2 z2 x4 | x8 | %32
 z E,E,E, A,,F,F,F, | E,D,C,B,, A,,2 z A,,/B,,/ | %34
 C,/B,,/A,,/B,,/ C,/D,/E,/^F,/ G,/F,/G,/A,/ B,B,, | E,=F,G,G,, C,D,E,E,, | A,,2 z A,, _B,,2 z G,, | %37
 A,,4 D,=C,=B,,A,, | ^G,,2 A,,B,, C,C,/D,/ E,2 | F,2 z2 z E,E,E, | A,,F,F,F, E,D,C,C | %41
 B,A, ^G,2 A,2 z A, | D,2 x2 x4 | z4 D,2 z2 | [D,E,B,]2 z2 C,/E,/C,/A,,/ D,/F,,/C,/E,,/ | %45
 ^D,,4 E,,4 | !fermata!A,,8 |] %47

